svgs/duotone/id-card-clip.svg

<svg xmlns="http://www.w3.org/2000/svg" viewBox="0 0 576 512"><!-- Font Awesome Pro 6.0.0-alpha2 by @fontawesome - https://fontawesome.com License - https://fontawesome.com/license (Commercial License) --><defs><style>.fa-secondary{opacity:.4}</style></defs><path d="M528 64H352V128H368C377.6 128 384 134.398 384 144S377.6 160 368 160H208C198.4 160 192 153.602 192 144S198.4 128 208 128H224V64H48C22.4 64 0 86.398 0 112V464C0 489.602 22.4 512 48 512H528C553.6 512 576 489.602 576 464V112C576 86.398 553.6 64 528 64ZM288 224C323.346 224 352 252.656 352 288S323.346 352 288 352S224 323.344 224 288S252.654 224 288 224ZM384 448H192C183.164 448 176 440.836 176 432C176 405.492 197.49 384 224 384H352C378.51 384 400 405.492 400 432C400 440.836 392.836 448 384 448Z" class="fa-secondary"/><path d="M352 32C352 12.797 339.199 0 320 0H256C236.801 0 224 12.797 224 32V128H352V32ZM288 352C323.346 352 352 323.344 352 288S323.346 224 288 224S224 252.656 224 288S252.654 352 288 352ZM352 384H224C197.49 384 176 405.492 176 432C176 440.836 183.164 448 192 448H384C392.836 448 400 440.836 400 432C400 405.492 378.51 384 352 384Z" class="fa-primary"/></svg>

<svg xmlns="http://www.w3.org/2000/svg" viewBox="0 0 576 512"><!--! Font Awesome Pro 6.3.0 by @fontawesome - https://fontawesome.com License - https://fontawesome.com/license (Commercial License) Copyright 2023 Fonticons, Inc. --><defs><style>.fa-secondary{opacity:.4}</style></defs><path class="fa-primary" d="M352 32c0-19.2-12.8-32-32-32H256C236.8 0 224 12.8 224 32v96h128V32zM288 352c35.35 0 64-28.66 64-64s-28.65-64-64-64S224 252.7 224 288S252.7 352 288 352zM352 384H224c-26.51 0-48 21.49-48 48C176 440.8 183.2 448 192 448h192c8.836 0 16-7.164 16-16C400 405.5 378.5 384 352 384z"/><path class="fa-secondary" d="M528 64H352v64h16C377.6 128 384 134.4 384 144S377.6 160 368 160h-160C198.4 160 192 153.6 192 144S198.4 128 208 128H224V64H48C22.4 64 0 86.4 0 112v352C0 489.6 22.4 512 48 512h480c25.6 0 48-22.4 48-48v-352C576 86.4 553.6 64 528 64zM288 224c35.35 0 64 28.66 64 64s-28.65 64-64 64s-64-28.66-64-64S252.7 224 288 224zM384 448H192c-8.836 0-16-7.164-16-16C176 405.5 197.5 384 224 384h128c26.51 0 48 21.49 48 48C400 440.8 392.8 448 384 448z"/></svg>
